X:1
T:I Am Resolved
T:James Henry Fillmore, Sr.
T:I Am Resolved
T:Public Domain
T:Public Domain
C:James Henry Fillmore, Sr.
Z:Public Domain
%%score ( 1 2 ) ( 3 4 )
L:1/8
M:4/4
K:Bb
V:1 treble 
V:2 treble 
V:3 bass 
V:4 bass 
V:1
 [DF]2 [B,D]>[CE] [DF]2 [FB]2 | [GB]2 [EG]>[FA] [GB]2 [EG]2 | [DF]2 [B,D]>[CE] [DF]2 [FB]2 | %3
w: 1.~I am re- solved no|long- er to lin- ger,|Charmed by the world’s de-|
w: 2.~I am re- solved to|go to the Sav- ior,|Leav- ing my sin and|
w: 3.~I am re- solved to|fol- low the Sav- ior,|Faith- ful and true each|
w: 4.~I am re- solved to|en- ter the king- dom|Leav- ing the paths of|
w: 5.~I am re- solved, and|who will go with me?|Come, friends, with- out de-|
 [Fc]8 | [Fd]2 [DB]>[Ec] [Fd]2 [FB]2 | [GB]2 [EG]>[FA] [GB]2 [EG]2 | [DF]2 [DB]>[Ec] [Fd]2 [Ec]2 | %7
w: light,|Things that are high- er,|things that are nob- ler,|These have al- lured my|
w: strife;|He is the true One,|He is the just One,|He hath the words of|
w: day;|Heed what He say- eth,|do what He will- eth,|He is the liv- ing|
w: sin;|Friends may o- ppose me,|foes may be- set me,|Still will I en- ter|
w: lay,|Taught by the Bi- ble,|led by the Spir- it,|We’ll walk the hea- v’nly|
 [DB]8 ||"^Refrain" [Fd]4 [FB]4 | [Gc]2 [GB]2 [EG]2 [GB]2 | F2 [FB]>[Fc] [Fd]2 [Fd]2 | [Fc]6 z2 | %12
w: sight.|||||
w: life.|I will|hast- en to Him,|hast- en so glad and|free;|
w: Way.|||||
w: in.|||||
w: way.|||||
 [Fd]4 [FB]4 | [Gc]2 [GB]2 [EG]2 [GB]2 | F2 (Bc) [Fd]2 [Fc]2 | [FB]8 |] %16
w: ||||
w: Je- sus,|great- est, high- est,|I will * come to|I|
w: ||||
w: ||||
w: ||||
V:2
 x8 | x8 | x8 | x8 | x8 | x8 | x8 | x8 || x8 | x8 | x8 | x8 | x8 | x8 | x2 F2 x4 | x8 |] %16
w: ||||||||||||||||
w: ||||||||||||||Thee.||
V:3
 [B,,B,]2 [B,,F,]>[B,,F,] [B,,B,]2 [D,B,]2 | [E,B,]2 [E,B,]>[E,B,] [E,B,]2 [E,B,]2 | %2
w: ~ ~ ~ ~ ~|~ ~ ~ ~ ~|
 [B,,B,]2 [B,,F,]>[B,,F,] [B,,B,]2 [D,B,]2 | [F,A,]8 | B,2 B,>B, B,2 [D,B,]2 | %5
w: ~ ~ ~ ~ ~|~|~ ~ ~ ~ ~|
 [E,B,]2 [E,B,]>[E,B,] [E,B,]2 [E,B,]2 | [F,B,]2 [F,B,]>[F,B,] [F,B,]2 [F,A,]2 | [B,,F,]8 || %8
w: ~ ~ ~ ~ ~|~ ~ I will hast-|en,|
 B,2 B,2 [B,D]2 [B,D]2 | [E,E]2 [E,E]2 [E,E]2 [E,E]2 | [B,,D]2 [B,,D]>[B,,C] [B,,B,]2 [D,B,]2 | %11
w: hast- en to Him,|~ ~ ~ ~|Hast- en, glad and free,|
 F,2 F,>G, F,E,(D,C,) | [B,,B,]2 [B,,B,]2 [B,D]2 [B,D]2 | [E,E]2 [E,E]2 [E,E]2 [E,E]2 | %14
w: Je- sus, Je- sus * * *|||
 [F,D]2 (DE) [F,F]2 [F,E]2 | [B,,D]8 |] %16
w: ||
V:4
 x8 | x8 | x8 | x8 | B,2 B,>B, B,2 x2 | x8 | x8 | x8 || B,2 B,2 x4 | x8 | x8 | A,6 x2 | x8 | x8 | %14
w: ||||~ ~ ~ ~||||~ ~||||||
 x2 F,2 x4 | x8 |] %16
w: ||

